X: 28943
T: Nana Jo's
R: reel
M: 4/4
K: Dmajor
A/B/c|:d2 de dBAF|EAFD EDB,A,|B,D ~D2 FEDE|FAAd BGBc|
defe dBAF|EAFD EDB,A,|B,D ~D2 FDAB|AFEF DEFA:|
B3d BAFA|BABc dfed|B3 d BAFE|DFAF E2FA|
BGBd BAFA|~B3 c dDde|fdef dBAF|EAFE DEFA|
B3d BAFA|BABc dfed|B3 d BAFE|DFAF E2FA|
d2 cA BAFA|~B3c dDde|fdef dBAF|EAFE DEFA:|

